X:106
T:Un Soir Au Clair De Lune
M:3/4
L:1/8
N:Pas trop vite
N:La Bourre 4th edition 1929, page 102
Z:Steve Mansfield www.lesession.co.uk June 2012
K:Em
E | B A B c (3B B B | A A G F E2 | 
E E D E F E | E F G A !fermata! B2 | B B e3 e | 
d B A A B c | !fermata! B2 B c d e | B A A B G F | !fermata! E6 |]
<end>
<start>
